icons/desktop/20/location-20.svg

<svg width="20" height="20" viewBox="0 0 20 20" fill="none" xmlns="http://www.w3.org/2000/svg">
<path fill-rule="evenodd" clip-rule="evenodd" d="M10 5C12.068 5 13.75 6.682 13.75 8.75C13.75 10.818 12.068 12.5 10 12.5C7.932 12.5 6.25 10.818 6.25 8.75C6.25 6.682 7.932 5 10 5ZM10 6.75C8.897 6.75 8 7.647 8 8.75C8 9.853 8.897 10.75 10 10.75C11.103 10.75 12 9.853 12 8.75C12 7.647 11.103 6.75 10 6.75Z" fill="black"/>
<path fill-rule="evenodd" clip-rule="evenodd" d="M10 0C14.8325 0 18.75 3.91894 18.75 8.75195C18.75 10.5508 17.6589 12.5651 16.4229 14.3105C15.1548 16.101 13.5976 17.793 12.4199 18.9844C11.0815 20.3374 8.91754 20.3375 7.5791 18.9844C6.40211 17.7932 4.84523 16.1009 3.57715 14.3105C2.41825 12.6743 1.38623 10.8017 1.26172 9.0918L1.24902 8.75195C1.25013 3.91912 5.16751 1.2632e-05 10 0ZM10 1.75C6.1346 1.75001 3.00005 4.88491 2.99902 8.75195C2.99902 9.95605 3.78362 11.5745 5.00488 13.2988C6.19421 14.978 7.6763 16.5931 8.82324 17.7539L8.9502 17.8701C9.6059 18.4119 10.5632 18.3731 11.1758 17.7539L11.6201 17.2979C12.6887 16.1882 13.9536 14.7682 14.9941 13.2988C16.2153 11.5745 17 9.95613 17 8.75195C17 4.88501 13.8655 1.75 10 1.75Z" fill="black"/>
</svg>

<!-- This Source Code Form is subject to the terms of the Mozilla Public
   - License, v. 2.0. If a copy of the MPL was not distributed with this
   - file, You can obtain one at http://mozilla.org/MPL/2.0/. -->
<svg xmlns="http://www.w3.org/2000/svg" width="20" height="20" fill="context-fill" fill-opacity="context-fill-opacity" viewBox="0 0 20 20">
    <path fill-rule="evenodd" d="M10 5a3.754 3.754 0 0 1 3.75 3.75A3.754 3.754 0 0 1 10 12.5a3.754 3.754 0 0 1-3.75-3.75A3.754 3.754 0 0 1 10 5m0 1.75c-1.103 0-2 .897-2 2s.897 2 2 2 2-.897 2-2-.897-2-2-2" clip-rule="evenodd" />
    <path fill-rule="evenodd" d="M10 0a8.75 8.75 0 0 1 8.75 8.752c0 1.799-1.091 3.813-2.327 5.558-1.268 1.791-2.825 3.483-4.003 4.674a3.394 3.394 0 0 1-4.84 0c-1.178-1.19-2.735-2.883-4.003-4.674-1.159-1.636-2.19-3.508-2.315-5.218l-.013-.34C1.25 3.919 5.168 0 10 0m0 1.75c-3.865 0-7 3.135-7.001 7.002 0 1.204.785 2.823 2.006 4.547 1.19 1.679 2.671 3.294 3.818 4.455l.127.116a1.643 1.643 0 0 0 2.226-.116l.444-.456c1.069-1.11 2.334-2.53 3.374-4C16.215 11.576 17 9.957 17 8.753a7 7 0 0 0-7-7.002" clip-rule="evenodd" />
</svg>
